build/category/VoteOutline.svg

<svg xmlns="http://www.w3.org/2000/svg" fill="none" viewBox="0 0 24 24" focusable="false"><path d="M0 0H24V24H0z"/><path fill="#74767B" fill-rule="evenodd" d="M8.55092 14.3501L5.90615 11.7053C5.73096 11.5301 5.61622 11.3173 5.56194 11.093C5.39603 11.3554 5.3 11.6665 5.3 12L5.3 18C5.3 18.9389 6.06112 19.7 7 19.7L17 19.7C17.9389 19.7 18.7 18.9389 18.7 18L18.7 12C18.7 11.6484 18.5932 11.3217 18.4104 11.0505L15.1108 14.3501L16.7653 14.3501C17.1243 14.3501 17.4153 14.6411 17.4153 15.0001C17.4153 15.3591 17.1243 15.6501 16.7653 15.6501L13.8108 15.6501L13.809 15.6519L9.85279 15.6519L9.85092 15.6501L7.23472 15.6501C6.87573 15.6501 6.58472 15.3591 6.58472 15.0001C6.58472 14.6411 6.87573 14.3501 7.23472 14.3501L8.55092 14.3501ZM19.3328 10.1136C19.7286 9.60363 19.6923 8.86681 19.224 8.39845L14.2185 3.39297C13.7108 2.88529 12.8877 2.88529 12.38 3.39297L6.76381 9.00916C5.21736 9.1296 4 10.4226 4 12L4 18C4 19.6569 5.34315 21 7 21L17 21C18.6569 21 20 19.6569 20 18L20 12C20 11.2853 19.7501 10.6289 19.3328 10.1136ZM10.3894 14.3501L6.82539 10.7861L13.2992 4.31221L18.3047 9.31769L13.2724 14.3501L10.3894 14.3501ZM15.3553 8.78512C15.6035 9.0445 15.5944 9.45596 15.335 9.70413L12.6095 12.3118C12.3538 12.5564 11.9495 12.5516 11.6997 12.301L9.88271 10.4777C9.6293 10.2234 9.63001 9.81189 9.88429 9.55849C10.1386 9.30508 10.5501 9.30579 10.8035 9.56006L12.171 10.9322L14.4363 8.76482C14.6957 8.51664 15.1071 8.52573 15.3553 8.78512Z"/></svg>

<svg xmlns="http://www.w3.org/2000/svg" fill="none" viewBox="0 0 24 24" focusable="false"><path fill="#74767B" fill-rule="evenodd" d="M8.55 14.35 5.9 11.7c-.17-.17-.29-.39-.34-.61-.17.26-.27.57-.27.91v6c0 .93.77 1.7 1.71 1.7h10c.93 0 1.7-.77 1.7-1.7v-6c0-.36-.11-.68-.29-.95l-3.3 3.3h1.65c.36 0 .65.29.65.65 0 .35-.29.65-.65.65H7.23c-.36 0-.65-.3-.65-.65 0-.36.29-.65.65-.65zm10.78-4.24c.39-.51.36-1.25-.11-1.72l-5.01-5c-.5-.51-1.33-.51-1.84 0L6.76 9A3 3 0 0 0 4 12v6c0 1.65 1.34 3 3 3h10c1.65 0 3-1.35 3-3v-6c0-.72-.25-1.38-.67-1.89m-8.95 4.24-3.56-3.57 6.47-6.47 5.01 5-5.03 5.04zm4.97-5.57c.25.26.24.67-.02.92l-2.73 2.61c-.25.24-.66.24-.91-.01l-1.81-1.83a.64.64 0 0 1 0-.92c.25-.25.67-.25.92.01l1.37 1.37 2.26-2.17c.26-.25.67-.24.92.02"/></svg>
